X:250
T:Go Down, Moses
Z:Jack Campin, http://www.campin.me.uk/
F:Jack Campin's Nine-Note Tunebook
% last edit 03-02-2013
M:4/4
L:1/4
Q:1/4=100
K:GMin
D|B      B  A A | B<    B  G2  |D  D ^F< F|G3
D|B      B  A A | B<    B  G2  |D  D ^F< F|G3         ||
z|G<     G- G2  | c<    c- c2  |d  d2    c|d< d (c/B/G)|
 (B/G/) (G2   B)|(G/F/) D- D> D|D< D ^F< F|G3         |]

